Icons/com_cgollner_flashify.svg

<svg viewBox="0 0 48 48" xmlns:xlink="http://www.w3.org/1999/xlink">
 <defs>
  <linearGradient id="0">
   <stop stop-opacity="0"/>
   <stop offset="1"/>
  </linearGradient>
  <linearGradient xlink:href="#0" id="1" gradientUnits="userSpaceOnUse" gradientTransform="translate(4e-7,-48)" y1="47" x2="0" y2="1"/>
  <clipPath id="2">
   <g transform="translate(0,-1004.3622)">
    <rect rx="4" y="1005.36" x="1" height="46" width="46" fill="#1890d0"/>
   </g>
  </clipPath>
  <clipPath id="3">
   <g transform="translate(0,-1004.3622)">
    <rect rx="4" y="1005.36" x="1" height="46" width="46" fill="#1890d0"/>
   </g>
  </clipPath>
  <clipPath>
   <path d="M 15 1 L 36 1 L 36 47 L 15 47 Z M 15 1 "/>
  </clipPath>
  <clipPath>
   <path d="M 24.109375 0.644531 C 22.109375 0.644531 20.171875 0.894531 18.3125 1.363281 L 15.007812 27.015625 L 21.835938 27.015625 L 18.667969 48.160156 C 19.886719 48.445312 21.121094 48.640625 22.402344 48.730469 L 35.488281 20.136719 L 28.660156 20.136719 L 31.859375 1.933594 C 29.429688 1.097656 26.820312 0.644531 24.109375 0.644531 Z M 24.109375 0.644531 "/>
  </clipPath>
  <clipPath>
   <path d="M 15 1 L 36 1 L 36 47 L 15 47 Z M 15 1 "/>
  </clipPath>
  <clipPath>
   <path d="M 24.109375 0.644531 C 22.109375 0.644531 20.171875 0.894531 18.3125 1.363281 L 15.007812 27.015625 L 21.835938 27.015625 L 18.667969 48.160156 C 19.886719 48.445312 21.121094 48.640625 22.402344 48.730469 L 35.488281 20.136719 L 28.660156 20.136719 L 31.859375 1.933594 C 29.429688 1.097656 26.820312 0.644531 24.109375 0.644531 Z M 24.109375 0.644531 "/>
  </clipPath>
 </defs>
 <g>
  <g transform="translate(0,-1004.3622)">
   <path d="m 5,1006.3622 c -2.216,0 -4,1.784 -4,4 l 0,37.25 c 0,2.216 1.784,4 4,4 l 38,0 c 2.216,0 4,-1.784 4,-4 l 0,-37.25 c 0,-2.216 -1.784,-4 -4,-4 l -38,0 z m -4,41.5 0,0.5 c 0,2.216 1.784,4 4,4 l 38,0 c 2.216,0 4,-1.784 4,-4 l 0,-0.5 c 0,2.216 -1.784,4 -4,4 l -38,0 c -2.216,0 -4,-1.784 -4,-4 z" opacity="0.02"/>
   <path d="m 1,1047.6122 0,0.25 c 0,2.216 1.784,4 4,4 l 38,0 c 2.216,0 4,-1.784 4,-4 l 0,-0.25 c 0,2.216 -1.784,4 -4,4 l -38,0 c -2.216,0 -4,-1.784 -4,-4 z" opacity="0.05"/>
   <rect width="46" height="46" x="1" y="1005.61" rx="4" opacity="0.1"/>
  </g>
 </g>
 <g>
  <g transform="translate(0,-1004.3622)">
   <rect rx="4" y="1005.36" x="1" height="46" width="46" fill="#737373"/>
  </g>
 </g>
 <g>
  <rect transform="scale(1,-1)" width="46" height="46" x="1" y="-46.998" rx="4" opacity="0.1" fill="url(#1)"/>
 </g>
 <g>
  <g clip-path="url(#2)">
   <g opacity="0.1">
    <path d="M 18.71875 0 L 15 27 L 22 27 L 18.1875 48 L 23.40625 48 L 35 20 L 29 20 L 31.84375 0 L 18.71875 0 z "/>
   </g>
  </g>
 </g>
 <g>
  <g clip-path="url(#3)">
   <g transform="translate(0,-1)">
    <path d="M 18.71875 0 L 15 27 L 22 27 L 18.1875 48 L 23.40625 48 L 35 20 L 29 20 L 31.84375 0 L 18.71875 0 z " fill="#ffbf14"/>
   </g>
  </g>
 </g>
 <g>
  <g transform="translate(0,-1004.3622)">
   <path d="m 1,1043.3622 0,4 c 0,2.216 1.784,4 4,4 l 38,0 c 2.216,0 4,-1.784 4,-4 l 0,-4 c 0,2.216 -1.784,4 -4,4 l -38,0 c -2.216,0 -4,-1.784 -4,-4 z" opacity="0.1"/>
  </g>
 </g>
</svg>

<svg viewBox="0 0 48 48"><defs><linearGradient id="linearGradient3764" x1="1" x2="47" gradientUnits="userSpaceOnUse" gradientTransform="translate(-48.000001,0.00221467)"><stop stop-color="#696969" stop-opacity="1"/><stop offset="1" stop-color="#737373" stop-opacity="1"/></linearGradient><clipPath id="clipPath-068518689"><g transform="translate(0,-1004.3622)"><rect rx="4" y="1005.36" x="1" height="46" width="46" fill="#1890d0"/></g></clipPath><clipPath id="clipPath-081778693"><g transform="translate(0,-1004.3622)"><rect rx="4" y="1005.36" x="1" height="46" width="46" fill="#1890d0"/></g></clipPath><clipPath><path d="m 15 1 l 21 0 l 0 46 l -21 0 m 0 -46"/></clipPath><clipPath><path d="m 24.11 0.645 c -2 0 -3.938 0.25 -5.797 0.719 l -3.305 25.652 l 6.828 0 l -3.168 21.14 c 1.219 0.285 2.453 0.48 3.734 0.57 l 13.09 -28.594 l -6.828 0 l 3.199 -18.203 c -2.43 -0.836 -5.04 -1.289 -7.75 -1.289 m 0 0"/></clipPath><clipPath><path d="m 15 1 l 21 0 l 0 46 l -21 0 m 0 -46"/></clipPath><clipPath><path d="m 24.11 0.645 c -2 0 -3.938 0.25 -5.797 0.719 l -3.305 25.652 l 6.828 0 l -3.168 21.14 c 1.219 0.285 2.453 0.48 3.734 0.57 l 13.09 -28.594 l -6.828 0 l 3.199 -18.203 c -2.43 -0.836 -5.04 -1.289 -7.75 -1.289 m 0 0"/></clipPath></defs><g><path d="m 1 43 l 0 0.25 c 0 2.216 1.784 4 4 4 l 38 0 c 2.216 0 4 -1.784 4 -4 l 0 -0.25 c 0 2.216 -1.784 4 -4 4 l -38 0 c -2.216 0 -4 -1.784 -4 -4 z m 0 0.5 l 0 0.5 c 0 2.216 1.784 4 4 4 l 38 0 c 2.216 0 4 -1.784 4 -4 l 0 -0.5 c 0 2.216 -1.784 4 -4 4 l -38 0 c -2.216 0 -4 -1.784 -4 -4 z" opacity="0.02"/><path d="m 1 43.25 l 0 0.25 c 0 2.216 1.784 4 4 4 l 38 0 c 2.216 0 4 -1.784 4 -4 l 0 -0.25 c 0 2.216 -1.784 4 -4 4 l -38 0 c -2.216 0 -4 -1.784 -4 -4 z" opacity="0.05"/><path d="m 1 43 l 0 0.25 c 0 2.216 1.784 4 4 4 l 38 0 c 2.216 0 4 -1.784 4 -4 l 0 -0.25 c 0 2.216 -1.784 4 -4 4 l -38 0 c -2.216 0 -4 -1.784 -4 -4 z" opacity="0.1"/></g><g><rect width="46" height="46" x="-47" y="1" rx="4" transform="matrix(0,-1,1,0,0,0)" fill="url(#linearGradient3764)" fill-opacity="1"/></g><g><g clip-path="url(#clipPath-068518689)"><g opacity="0.1"><!-- color: #737373 --><path d="m 18.719 0 l -3.719 27 l 7 0 l -3.813 21 l 5.219 0 l 11.594 -28 l -6 0 l 2.844 -20 l -13.12 0 z" fill="#000"/></g></g></g><g><g clip-path="url(#clipPath-081778693)"><g transform="translate(0,-1)"><!-- color: #737373 --><path d="m 18.719 0 l -3.719 27 l 7 0 l -3.813 21 l 5.219 0 l 11.594 -28 l -6 0 l 2.844 -20 l -13.12 0 z" fill="#ffbf14"/></g></g></g><g><g transform="translate(0,-1004.3622)"><path d="m 1 1043.36 0 4 c 0 2.216 1.784 4 4 4 l 38 0 c 2.216 0 4 -1.784 4 -4 l 0 -4 c 0 2.216 -1.784 4 -4 4 l -38 0 c -2.216 0 -4 -1.784 -4 -4 z" opacity="0.1"/></g></g></svg>
